packages/icons/src/spark-three.svg

<svg width="24" height="24" viewBox="0 0 24 24" fill="none" xmlns="http://www.w3.org/2000/svg">
<path fill-rule="evenodd" clip-rule="evenodd" d="M8.35009 19.475L5.75009 20.6L4.67509 23L3.60009 20.6L1.00009 19.475L3.60009 18.35L4.67509 15.825L5.75009 18.35L8.35009 19.475ZM17.9501 9.72497L22.9751 11.975L17.9501 14.225L15.6501 19.15L13.3251 14.225L8.32509 11.975L13.3251 9.72497L15.6501 4.82498L17.9501 9.72497ZM15.6403 9.51106L16.4551 11.2469L18.0811 11.975L16.4531 12.7039L15.6403 14.4443L14.8187 12.7039L13.1988 11.975L14.8167 11.2469L15.6403 9.51106ZM1.00009 4.47498L3.60009 3.34998L4.67509 0.974976L5.75009 3.34998L8.35009 4.47498L5.75009 5.62498L4.67509 8.12498L3.60009 5.62498L1.00009 4.47498Z" fill="black"/>
</svg>

<svg xmlns="http://www.w3.org/2000/svg" width="24" height="24" fill="none" viewBox="0 0 24 24">
  <path fill="#000" fill-rule="evenodd" d="M8.35 19.475 5.75 20.6 4.675 23 3.6 20.6 1 19.475l2.6-1.125 1.075-2.525L5.75 18.35l2.6 1.125Zm9.6-9.75 5.025 2.25-5.025 2.25-2.3 4.925-2.325-4.925-5-2.25 5-2.25 2.325-4.9 2.3 4.9Zm-2.31-.214.815 1.736 1.626.728-1.628.729-.813 1.74-.821-1.74-1.62-.729 1.618-.728.823-1.736ZM1 4.475 3.6 3.35 4.675.975 5.75 3.35l2.6 1.125-2.6 1.15-1.075 2.5-1.075-2.5L1 4.475Z" clip-rule="evenodd"/>
</svg>
